curriculum/images/exercise-icons/controlled-snake.svg

<svg width="83" height="83" viewBox="0 0 83 83" fill="none" xmlns="http://www.w3.org/2000/svg">
<g clip-path="url(#clip0_186_2)">
<path d="M0.942749 41.5283C0.942749 52.1369 5.15702 62.3111 12.6585 69.8125C20.1599 77.314 30.3341 81.5283 40.9427 81.5283C51.5514 81.5283 61.7256 77.314 69.227 69.8125C76.7285 62.3111 80.9427 52.1369 80.9427 41.5283C80.9427 30.9196 76.7285 20.7454 69.227 13.244C61.7256 5.74253 51.5514 1.52826 40.9427 1.52826C30.3341 1.52826 20.1599 5.74253 12.6585 13.244C5.15702 20.7454 0.942749 30.9196 0.942749 41.5283Z" fill="#DAEDF7" stroke="#DAEDF7" stroke-miterlimit="10"/>
<path opacity="0.15" d="M64.5808 71.2293H15.3038C14.4325 71.2293 13.5968 70.8832 12.9806 70.2672C12.3644 69.6511 12.0181 68.8156 12.0178 67.9443V60.2793H67.8658V67.9453C67.8655 68.8163 67.5193 69.6516 66.9033 70.2675C66.2873 70.8833 65.4519 71.2293 64.5808 71.2293ZM12.6608 30.7123H67.8428L74.4138 13.6593C74.4595 13.328 74.4337 12.9908 74.3381 12.6703C74.2425 12.3499 74.0794 12.0536 73.8596 11.8016C73.6399 11.5495 73.3686 11.3474 73.0642 11.2091C72.7598 11.0707 72.4292 10.9991 72.0948 10.9993H8.3368C8.00259 10.9992 7.67223 11.0707 7.36796 11.2089C7.06369 11.3472 6.79257 11.5491 6.57285 11.8009C6.35313 12.0527 6.1899 12.3487 6.09416 12.6689C5.99842 12.9891 5.97238 13.3261 6.0178 13.6573L12.6608 30.7123Z" fill="#45413C"/>
<path d="M65.1278 68.4923H14.7558C14.1751 68.492 13.6182 68.2612 13.2075 67.8505C12.7969 67.4399 12.5661 66.883 12.5658 66.3023V31.8073C12.5658 31.5164 12.681 31.2374 12.8862 31.0312C13.0914 30.8251 13.3699 30.7086 13.6608 30.7073H66.2228C66.5145 30.7073 66.7943 30.8232 67.0006 31.0294C67.2069 31.2357 67.3228 31.5155 67.3228 31.8073V66.2993C67.3231 66.5875 67.2664 66.8729 67.1562 67.1393C67.046 67.4056 66.8843 67.6475 66.6804 67.8512C66.4765 68.055 66.2344 68.2164 65.9679 68.3264C65.7015 68.4364 65.416 68.4928 65.1278 68.4923Z" fill="#DAEDF7"/>
<path d="M65.1278 68.4923H14.7558C14.1751 68.492 13.6182 68.2612 13.2075 67.8505C12.7969 67.4399 12.5661 66.883 12.5658 66.3023V31.8073C12.5658 31.5164 12.681 31.2374 12.8862 31.0312C13.0914 30.8251 13.3699 30.7086 13.6608 30.7073H66.2228C66.5145 30.7073 66.7943 30.8232 67.0006 31.0294C67.2069 31.2357 67.3228 31.5155 67.3228 31.8073V66.2993C67.3231 66.5875 67.2664 66.8729 67.1562 67.1393C67.046 67.4056 66.8843 67.6475 66.6804 67.8512C66.4765 68.055 66.2344 68.2164 65.9679 68.3264C65.7015 68.4364 65.416 68.4928 65.1278 68.4923Z" stroke="#45413C" stroke-linecap="round" stroke-linejoin="round"/>
<path d="M16.9007 33.4503H21.8737V37.2823H15.8507V34.4993C15.851 34.221 15.9617 33.9541 16.1586 33.7574C16.3555 33.5607 16.6224 33.4503 16.9007 33.4503Z" fill="#BF8DF2"/>
<path d="M21.8738 33.4503H27.8968V37.2833H21.8738V33.4503Z" fill="#00B8F0"/>
<path d="M27.8967 33.4503H33.9197V37.2833H27.8967V33.4503Z" fill="#00DBA8"/>
<path d="M33.9187 33.4503H39.9417V37.2833H33.9187V33.4503Z" fill="#6DD627"/>
<path d="M39.9418 33.4503H45.9648V37.2833H39.9418V33.4503Z" fill="#FFE500"/>
<path d="M45.9647 33.4503H51.9877V37.2833H45.9647V33.4503Z" fill="#FF8A14"/>
<path d="M51.9878 33.4503H58.0108V37.2833H51.9878V33.4503Z" fill="#FF6242"/>
<path d="M58.0107 33.4503H62.9827C63.2612 33.4503 63.5283 33.5609 63.7252 33.7578C63.9221 33.9547 64.0327 34.2218 64.0327 34.5003V37.2823H58.0107V33.4503Z" fill="#FF6196"/>
<path d="M64.0327 37.2823H15.8507V34.4993C15.8507 34.3614 15.8779 34.2248 15.9306 34.0974C15.9834 33.9701 16.0607 33.8543 16.1582 33.7568C16.2557 33.6593 16.3715 33.582 16.4989 33.5292C16.6263 33.4764 16.7628 33.4493 16.9007 33.4493H62.9827C63.2612 33.4493 63.5283 33.5599 63.7252 33.7568C63.9221 33.9537 64.0327 34.2208 64.0327 34.4993V37.2823Z" stroke="#45413C" stroke-linecap="round" stroke-linejoin="round"/>
<path d="M31.6838 55.3513H48.1998C48.1998 55.3513 49.2498 55.3513 49.2498 56.4013V64.7043C49.2498 64.7043 49.2498 65.7543 48.1998 65.7543H31.6838C31.6838 65.7543 30.6338 65.7543 30.6338 64.7043V56.4013C30.6338 56.4013 30.6338 55.3513 31.6838 55.3513Z" stroke="#45413C" stroke-linecap="round" stroke-linejoin="round"/>
<path d="M64.0327 52.6133H16.9007C16.6222 52.6133 16.3552 52.5026 16.1582 52.3057C15.9613 52.1088 15.8507 51.8417 15.8507 51.5633V37.2823H64.0327V52.6133Z" fill="#DAEDF7" stroke="#45413C" stroke-linecap="round" stroke-linejoin="round"/>
<path d="M19.1357 49.8763L21.3257 49.8753M23.5157 49.8763L25.7057 49.8753M19.1357 46.5903H21.3257M23.5157 46.5903H25.7057M27.8967 46.5903H30.0867M32.2767 46.5903H34.4667M36.6567 46.5903H38.8467M41.0367 46.5903H43.2267M45.4167 46.5903H47.6067M49.7977 46.5903H51.9877M58.5577 49.8763L60.7477 49.8753M54.1777 49.8763L56.3677 49.8753M54.1777 46.5903H56.3677M58.5577 46.5903H60.7477M19.1357 43.3053H21.3257M23.5157 43.3053H25.7057M27.8967 43.3053H30.0867M32.2767 43.3053H34.4667M36.6567 43.3053H38.8467M41.0367 43.3053H43.2267M45.4167 43.3053H47.6067M49.7977 43.3053H51.9877M54.1777 43.3053H56.3677M58.5577 43.3053H60.7477M19.1357 40.0203H21.3257M23.5157 40.0203H25.7057M27.8967 40.0203H30.0867M32.2767 40.0203H34.4667M36.6567 40.0203H38.8467M41.0367 40.0203H43.2267M45.4167 40.0203H47.6067M49.7977 40.0203H51.9877M54.1777 40.0203H56.3677M58.5577 40.0203H60.7477M27.8967 49.8763L51.9877 49.8753" stroke="#45413C" stroke-linecap="round" stroke-linejoin="round"/>
<path d="M65.6697 30.7123H14.8337C14.4314 30.7121 14.0447 30.5567 13.7543 30.2783C13.4638 29.9999 13.292 29.6202 13.2747 29.2183L8.01475 1.69926C8.0057 1.48891 8.03933 1.27891 8.11361 1.08191C8.18788 0.884907 8.30127 0.704978 8.44693 0.552961C8.59259 0.400944 8.76752 0.279985 8.96118 0.197372C9.15483 0.114758 9.36321 0.0721987 9.57375 0.0722581H70.8577C71.0683 0.0721987 71.2767 0.114758 71.4703 0.197372C71.664 0.279985 71.8389 0.400944 71.9846 0.552961C72.1302 0.704978 72.2436 0.884907 72.3179 1.08191C72.3922 1.27891 72.4258 1.48891 72.4167 1.69926L67.2287 29.2183C67.2115 29.6202 67.0397 29.9999 66.7492 30.2783C66.4588 30.5567 66.072 30.7121 65.6697 30.7123Z" fill="#87898C" stroke="#45413C" stroke-linecap="round" stroke-linejoin="round"/>
<path d="M63.1487 27.4273H17.3487C17.0965 27.4273 16.8521 27.3402 16.6568 27.1808C16.4614 27.0213 16.3272 26.7993 16.2767 26.5523L11.4557 3.02626H68.9757L64.2217 26.5493C64.1718 26.797 64.0376 27.0199 63.842 27.1799C63.6464 27.34 63.4014 27.4274 63.1487 27.4273Z" fill="#45413C"/>
<path d="M11.4557 3.02626L16.2797 26.5523C16.3302 26.7993 16.4644 27.0213 16.6598 27.1808C16.8551 27.3402 17.0995 27.4273 17.3517 27.4273H20.2767L44.6767 3.02726L11.4557 3.02626Z" fill="#87898C"/>
<path d="M63.1487 27.4273H17.3487C17.0965 27.4273 16.8521 27.3402 16.6568 27.1808C16.4614 27.0213 16.3272 26.7993 16.2767 26.5523L11.4557 3.02626H68.9757L64.2217 26.5493C64.1718 26.797 64.0376 27.0199 63.842 27.1799C63.6464 27.34 63.4014 27.4274 63.1487 27.4273Z" stroke="#45413C" stroke-linecap="round" stroke-linejoin="round"/>
<path d="M57.6954 61.9846L55.4391 48.7102C55.3932 48.4395 55.401 48.1623 55.4621 47.8946C55.5233 47.6269 55.6366 47.3739 55.7955 47.15C56.1165 46.6977 56.604 46.3915 57.1508 46.2987C57.6975 46.2059 58.2588 46.3341 58.711 46.6551C59.1632 46.9761 59.4695 47.4636 59.5623 48.0103L61.2903 58.1894C61.1974 57.6426 61.3255 57.0813 61.6464 56.629C61.9673 56.1766 62.4548 55.8703 63.0016 55.7774C63.5484 55.6845 64.1097 55.8126 64.5621 56.1335C65.0144 56.4544 65.3207 56.9419 65.4136 57.4887L65.5889 58.5203C65.5427 58.2495 65.5504 57.9723 65.6114 57.7045C65.6724 57.4366 65.7856 57.1835 65.9444 56.9594C66.1033 56.7353 66.3047 56.5447 66.5372 56.3985C66.7697 56.2522 67.0288 56.1532 67.2996 56.1071C67.5703 56.061 67.8475 56.0686 68.1154 56.1297C68.3832 56.1907 68.6363 56.3038 68.8604 56.4627C69.0845 56.6215 69.2751 56.823 69.4213 57.0555C69.5676 57.288 69.6666 57.547 69.7127 57.8178L69.8873 58.8482C69.8413 58.5775 69.8492 58.3004 69.9103 58.0327C69.9714 57.765 70.0847 57.5119 70.2437 57.288C70.4026 57.0641 70.6041 56.8736 70.8366 56.7276C71.0692 56.5815 71.3282 56.4827 71.5989 56.4367C71.8697 56.3908 72.1468 56.3986 72.4145 56.4598C72.6822 56.5209 72.9352 56.6342 73.1592 56.7931C73.6114 57.1141 73.9176 57.6016 74.0104 58.1484L75.2805 65.6222C76.1821 70.9326 74.2784 72.2132 74.7945 75.2492L75.2757 78.0841L63.4222 80.0975C62.4135 74.1571 56.4153 76.9343 54.8155 67.5507C54.2158 64.0098 55.1387 62.4151 57.6954 61.9846Z" fill="#FFDB94"/>
<path d="M65.9678 60.7528L65.5889 58.5203M61.8158 61.2812L61.2903 58.1894M70.091 60.0529L69.8869 58.85" stroke="#45413C" stroke-linecap="round" stroke-linejoin="round"/>
<path d="M63.42 80.0988L75.2735 78.0854L74.7924 75.2504C74.6324 74.0235 74.7413 72.7764 75.1115 71.5958C72.4127 73.1076 69.4288 74.0414 66.3497 74.3377C63.2705 74.634 60.1633 74.2863 57.2257 73.3168C59.5954 76.0519 62.718 75.9629 63.42 80.0988Z" fill="#FFBE3D"/>
<path d="M63.4199 80.0988C62.4113 74.1584 56.4131 76.9356 54.8133 67.552C54.2123 64.0089 55.1352 62.4141 57.6889 61.981L55.4391 48.7102C55.3932 48.4395 55.401 48.1623 55.4621 47.8946C55.5233 47.6269 55.6366 47.3739 55.7955 47.1499C55.9545 46.926 56.1559 46.7356 56.3885 46.5895C56.621 46.4435 56.88 46.3446 57.1508 46.2987C57.4215 46.2527 57.6986 46.2606 57.9663 46.3217C58.234 46.3829 58.4871 46.4961 58.711 46.6551C58.9349 46.814 59.1254 47.0155 59.2714 47.248C59.4175 47.4806 59.5163 47.7396 59.5623 48.0103L61.2903 58.1894C61.1974 57.6426 61.3255 57.0813 61.6464 56.629C61.9673 56.1766 62.4548 55.8703 63.0016 55.7774C63.5484 55.6845 64.1097 55.8126 64.5621 56.1335C65.0144 56.4544 65.3207 56.9419 65.4136 57.4887L65.5889 58.5203C65.5427 58.2495 65.5504 57.9723 65.6114 57.7045C65.6724 57.4366 65.7856 57.1835 65.9444 56.9594C66.1033 56.7353 66.3047 56.5447 66.5372 56.3985C66.7697 56.2522 67.0288 56.1532 67.2996 56.1071C67.5703 56.061 67.8475 56.0686 68.1154 56.1296C68.3832 56.1907 68.6363 56.3038 68.8604 56.4627C69.0845 56.6215 69.2751 56.823 69.4213 57.0555C69.5676 57.288 69.6666 57.547 69.7127 57.8178L69.8873 58.8482C69.7945 58.3015 69.9227 57.7402 70.2437 57.288C70.5647 56.8358 71.0522 56.5296 71.5989 56.4367C72.1457 56.3439 72.7069 56.4721 73.1592 56.7931C73.6114 57.1141 73.9176 57.6016 74.0104 58.1484L75.2805 65.6222C76.1821 70.9326 74.2784 72.2132 74.7945 75.2492L75.2757 78.0841M58.4804 66.6205L57.6924 61.982" stroke="#45413C" stroke-linecap="round" stroke-linejoin="round"/>
</g>
<defs>
<clipPath id="clip0_186_2">
<rect width="83" height="83" fill="white"/>
</clipPath>
</defs>
</svg>

<svg xmlns="http://www.w3.org/2000/svg" width="83" height="83" fill="none" viewBox="0 0 83 83"><g clip-path="url(#a)"><path fill="#daedf7" stroke="#daedf7" stroke-miterlimit="10" d="M.943 41.528a40 40 0 1 0 80 0 40 40 0 0 0-80 0Z"/><path fill="#45413c" d="M64.58 71.23H15.305a3.286 3.286 0 0 1-3.286-3.286V60.28h55.848v7.666a3.285 3.285 0 0 1-3.285 3.284M12.66 30.711h55.183l6.57-17.053A2.34 2.34 0 0 0 72.096 11H8.337a2.34 2.34 0 0 0-2.32 2.658z" opacity=".15"/><path fill="#daedf7" d="M65.128 68.492H14.756a2.19 2.19 0 0 1-2.19-2.19V31.807a1.1 1.1 0 0 1 1.095-1.1h52.562a1.1 1.1 0 0 1 1.1 1.1V66.3a2.19 2.19 0 0 1-2.195 2.193"/><path stroke="#45413c" stroke-linecap="round" stroke-linejoin="round" d="M65.128 68.492H14.756a2.19 2.19 0 0 1-2.19-2.19V31.807a1.1 1.1 0 0 1 1.095-1.1h52.562a1.1 1.1 0 0 1 1.1 1.1V66.3a2.19 2.19 0 0 1-2.195 2.193"/><path fill="#bf8df2" d="M16.9 33.45h4.974v3.832H15.85V34.5a1.05 1.05 0 0 1 1.05-1.049"/><path fill="#00b8f0" d="M21.874 33.45h6.023v3.833h-6.023z"/><path fill="#00dba8" d="M27.897 33.45h6.023v3.833h-6.023z"/><path fill="#6dd627" d="M33.919 33.45h6.023v3.833h-6.023z"/><path fill="#ffe500" d="M39.942 33.45h6.023v3.833h-6.023z"/><path fill="#ff8a14" d="M45.965 33.45h6.023v3.833h-6.023z"/><path fill="#ff6242" d="M51.988 33.45h6.023v3.833h-6.023z"/><path fill="#ff6196" d="M58.01 33.45h4.973a1.05 1.05 0 0 1 1.05 1.05v2.782H58.01z"/><path stroke="#45413c" stroke-linecap="round" stroke-linejoin="round" d="M64.033 37.282H15.85V34.5a1.05 1.05 0 0 1 1.05-1.05h46.082a1.05 1.05 0 0 1 1.05 1.05zM31.684 55.351H48.2s1.05 0 1.05 1.05v8.303s0 1.05-1.05 1.05H31.684s-1.05 0-1.05-1.05v-8.303s0-1.05 1.05-1.05"/><path fill="#daedf7" stroke="#45413c" stroke-linecap="round" stroke-linejoin="round" d="M64.033 52.613H16.9a1.05 1.05 0 0 1-1.05-1.05v-14.28h48.182z"/><path stroke="#45413c" stroke-linecap="round" stroke-linejoin="round" d="M19.136 49.876h2.19m2.19 0h2.19m-6.57-3.286h2.19m2.19 0h2.19m2.19 0h2.19m2.19 0h2.19m2.19 0h2.19m2.19 0h2.19m2.19 0h2.19m2.192 0h2.19m6.57 3.286h2.19m-6.57 0h2.19m-2.19-3.286h2.19m2.19 0h2.19m-41.612-3.285h2.19m2.19 0h2.19m2.19 0h2.19m2.19 0h2.19m2.19 0h2.19m2.19 0h2.19m2.19 0h2.19m2.192 0h2.19m2.19 0h2.19m2.19 0h2.19M19.136 40.02h2.19m2.19 0h2.19m2.19 0h2.19m2.19 0h2.19m2.19 0h2.19m2.19 0h2.19m2.19 0h2.19m2.192 0h2.19m2.19 0h2.19m2.19 0h2.19m-32.851 9.856h24.09"/><path fill="#87898c" stroke="#45413c" stroke-linecap="round" stroke-linejoin="round" d="M65.67 30.712H14.834a1.56 1.56 0 0 1-1.56-1.494L8.015 1.7A1.56 1.56 0 0 1 9.575.072h61.284A1.56 1.56 0 0 1 72.417 1.7l-5.188 27.52a1.56 1.56 0 0 1-1.56 1.493"/><path fill="#45413c" d="M63.149 27.427h-45.8a1.094 1.094 0 0 1-1.072-.875L11.456 3.026h57.52L64.222 26.55a1.094 1.094 0 0 1-1.073.878"/><path fill="#87898c" d="m11.456 3.026 4.824 23.526a1.094 1.094 0 0 0 1.072.875h2.925l24.4-24.4z"/><path stroke="#45413c" stroke-linecap="round" stroke-linejoin="round" d="M63.149 27.427h-45.8a1.094 1.094 0 0 1-1.072-.875L11.456 3.026h57.52L64.222 26.55a1.094 1.094 0 0 1-1.073.878"/><path fill="#ffdb94" d="M57.695 61.985 55.44 48.71a2.093 2.093 0 0 1 1.712-2.411 2.09 2.09 0 0 1 2.411 1.711l1.728 10.18a2.091 2.091 0 0 1 4.124-.701l.175 1.031a2.09 2.09 0 0 1 3.832-1.465c.147.233.246.492.292.763l.174 1.03a2.09 2.09 0 1 1 4.123-.7l1.27 7.474c.902 5.31-1.002 6.591-.486 9.627l.482 2.835-11.854 2.013c-1.008-5.94-7.007-3.163-8.606-12.546-.6-3.541.323-5.136 2.88-5.566"/><path stroke="#45413c" stroke-linecap="round" stroke-linejoin="round" d="m65.968 60.753-.38-2.233m-3.772 2.761-.526-3.092m8.801 1.864-.204-1.203"/><path fill="#ffbe3d" d="m63.42 80.099 11.853-2.014-.48-2.835a8.5 8.5 0 0 1 .319-3.654 22.3 22.3 0 0 1-17.886 1.72c2.37 2.736 5.492 2.647 6.194 6.783"/><path stroke="#45413c" stroke-linecap="round" stroke-linejoin="round" d="M63.42 80.099c-1.009-5.94-7.007-3.163-8.607-12.547-.6-3.543.322-5.138 2.876-5.571l-2.25-13.27a2.093 2.093 0 0 1 1.712-2.412 2.09 2.09 0 0 1 2.411 1.711l1.728 10.18a2.091 2.091 0 0 1 4.124-.701l.175 1.031a2.09 2.09 0 0 1 3.832-1.465c.147.233.246.492.292.763l.174 1.03a2.091 2.091 0 0 1 4.123-.7l1.27 7.474c.902 5.31-1.002 6.591-.486 9.627l.482 2.835M58.48 66.621l-.788-4.639"/></g><defs><clipPath id="a"><path fill="#fff" d="M0 0h83v83H0z"/></clipPath></defs></svg>
